src/assets/svg/basket.svg

<svg width="18" height="16" viewBox="0 0 18 16" fill="none" xmlns="http://www.w3.org/2000/svg">
<path d="M7.00024 16C6.4698 16 5.9611 15.7893 5.58602 15.4142C5.21095 15.0391 5.00024 14.5304 5.00024 14C5.00024 13.4696 5.21095 12.9609 5.58602 12.5858C5.9611 12.2107 6.4698 12 7.00024 12C7.53067 12 8.03938 12.2107 8.41445 12.5858C8.78952 12.9609 9.00024 13.4696 9.00024 14C9.00024 14.5304 8.78952 15.0391 8.41445 15.4142C8.03938 15.7893 7.53067 16 7.00024 16ZM14.0002 16C13.4698 16 12.9611 15.7893 12.586 15.4142C12.211 15.0391 12.0002 14.5304 12.0002 14C12.0002 13.4696 12.211 12.9609 12.586 12.5858C12.9611 12.2107 13.4698 12 14.0002 12C14.5307 12 15.0394 12.2107 15.4145 12.5858C15.7895 12.9609 16.0002 13.4696 16.0002 14C16.0002 14.5304 15.7895 15.0391 15.4145 15.4142C15.0394 15.7893 14.5307 16 14.0002 16ZM0.962238 1.923C0.712599 1.91495 0.475879 1.81012 0.302136 1.63068C0.128393 1.45125 0.03125 1.21127 0.03125 0.9615C0.03125 0.711732 0.128393 0.471755 0.302136 0.292318C0.475879 0.11288 0.712599 0.00805181 0.962238 0L2.11324 0C3.01524 0 3.79524 0.626 3.99124 1.506L5.24424 7.148C5.44024 8.028 6.22024 8.654 7.12224 8.654H14.6342L16.0762 2.884H6.73124C6.48395 2.87272 6.25053 2.76654 6.07952 2.58755C5.90852 2.40857 5.81309 2.17055 5.81309 1.923C5.81309 1.67545 5.90852 1.43743 6.07952 1.25845C6.25053 1.07946 6.48395 0.973284 6.73124 0.962H16.0762C16.3686 0.961914 16.6571 1.02848 16.9198 1.15663C17.1826 1.28479 17.4126 1.47116 17.5925 1.70158C17.7724 1.93201 17.8974 2.20041 17.958 2.4864C18.0186 2.77238 18.0132 3.06842 17.9422 3.352L16.5002 9.12C16.3963 9.5362 16.1561 9.90568 15.818 10.1697C15.4799 10.4337 15.0632 10.5771 14.6342 10.577H7.12224C6.24703 10.5771 5.39796 10.2787 4.71525 9.7311C4.03254 9.18348 3.55703 8.41938 3.36724 7.565L2.11324 1.923H0.962238Z" fill="#21272A"/>
</svg>

<svg width="18" height="16" fill="none" xmlns="http://www.w3.org/2000/svg"><path d="M7 16a2 2 0 110-4 2 2 0 010 4zm7 0a2 2 0 110-4 2 2 0 010 4zM.962 1.923A.962.962 0 01.962 0h1.151c.902 0 1.682.626 1.878 1.506l1.253 5.642c.196.88.976 1.506 1.878 1.506h7.512l1.442-5.77H6.731a.962.962 0 010-1.922h9.345a1.923 1.923 0 011.866 2.39L16.5 9.12a1.923 1.923 0 01-1.866 1.457H7.122a3.846 3.846 0 01-3.755-3.012L2.113 1.923H.963z" fill="#21272A"/></svg>
